X:1
T:Polska i A-moll
M:3/4
L:1/16
O:Blekinge
R:Slängpolska
N:Uppteckning finns på Musikmuseet i Stockholm
Z:Andy Davey 2018
K:Am
Q:120
|: e2(eB) c2(cA) B2(B^G) | E2E^G AGAB cBcd | e2(eB) c2(cA) B2(B^G) | E2E^G ^G2A2 A4 !fine!:| 
|: c3d e4 g4 | e2e2 e2de d4 | B2(Bc) d2(dB) d2dB | cBcd edcB cBcd!D.C.! :|

